static/img/kroki/705140de55bb213aa7e29aa05dc8e3e5.svg

<?xml version="1.0" encoding="us-ascii" standalone="no"?><svg xmlns="http://www.w3.org/2000/svg" xmlns:xlink="http://www.w3.org/1999/xlink" contentStyleType="text/css" height="840px" preserveAspectRatio="none" style="width:340px;height:840px;" version="1.1" viewBox="0 0 340 840" width="340px" zoomAndPan="magnify"><defs/><g><!--class gcp_zone--><g id="elem_gcp_zone"><rect codeLine="23" fill="#3D176E" height="39.7891" id="gcp_zone" rx="2.5" ry="2.5" style="stroke:#000D19;stroke-width:0.5;" width="118" x="7" y="794.63"/><ellipse cx="22" cy="814.5245" fill="#ADD1B2" rx="11" ry="11" style="stroke:#181818;stroke-width:1.0;"/><path d="M24.9688,820.1652 Q24.3906,820.462 23.75,820.6027 Q23.1094,820.7589 22.4063,820.7589 Q19.9063,820.7589 18.5781,819.1183 Q17.2656,817.462 17.2656,814.337 Q17.2656,811.212 18.5781,809.5558 Q19.9063,807.8995 22.4063,807.8995 Q23.1094,807.8995 23.75,808.0558 Q24.4063,808.212 24.9688,808.5089 L24.9688,811.2277 Q24.3438,810.6495 23.75,810.3839 Q23.1563,810.1027 22.5313,810.1027 Q21.1875,810.1027 20.5,811.1808 Q19.8125,812.2433 19.8125,814.337 Q19.8125,816.4308 20.5,817.5089 Q21.1875,818.5714 22.5313,818.5714 Q23.1563,818.5714 23.75,818.3058 Q24.3438,818.0245 24.9688,817.4464 L24.9688,820.1652 Z " fill="#000000"/><text fill="#D9B8FF" font-family="Helvetica" font-size="17" lengthAdjust="spacing" textLength="76" x="41" y="820.4098">gcp_zone</text></g><!--class phantom_resource--><g id="elem_phantom_resource"><rect codeLine="26" fill="#3D176E" height="39.7891" id="phantom_resource" rx="2.5" ry="2.5" style="stroke:#000D19;stroke-width:0.5;" width="198" x="57" y="438.76"/><ellipse cx="72" cy="458.6545" fill="#ADD1B2" rx="11" ry="11" style="stroke:#181818;stroke-width:1.0;"/><path d="M74.9688,464.2952 Q74.3906,464.592 73.75,464.7327 Q73.1094,464.8889 72.4063,464.8889 Q69.9063,464.8889 68.5781,463.2483 Q67.2656,461.592 67.2656,458.467 Q67.2656,455.342 68.5781,453.6858 Q69.9063,452.0295 72.4063,452.0295 Q73.1094,452.0295 73.75,452.1858 Q74.4063,452.342 74.9688,452.6389 L74.9688,455.3577 Q74.3438,454.7795 73.75,454.5139 Q73.1563,454.2327 72.5313,454.2327 Q71.1875,454.2327 70.5,455.3108 Q69.8125,456.3733 69.8125,458.467 Q69.8125,460.5608 70.5,461.6389 Q71.1875,462.7014 72.5313,462.7014 Q73.1563,462.7014 73.75,462.4358 Q74.3438,462.1545 74.9688,461.5764 L74.9688,464.2952 Z " fill="#000000"/><text fill="#D9B8FF" font-family="Helvetica" font-size="17" lengthAdjust="spacing" textLength="156" x="91" y="464.5398">phantom_resource</text></g><!--class resource--><g id="elem_resource"><rect codeLine="29" fill="#3D176E" height="310.7578" id="resource" rx="2.5" ry="2.5" style="stroke:#000D19;stroke-width:0.5;" width="227" x="42.5" y="7"/><ellipse cx="111.25" cy="26.8945" fill="#ADD1B2" rx="11" ry="11" style="stroke:#181818;stroke-width:1.0;"/><path d="M114.2188,32.5352 Q113.6406,32.832 113,32.9727 Q112.3594,33.1289 111.6563,33.1289 Q109.1563,33.1289 107.8281,31.4883 Q106.5156,29.832 106.5156,26.707 Q106.5156,23.582 107.8281,21.9258 Q109.1563,20.2695 111.6563,20.2695 Q112.3594,20.2695 113,20.4258 Q113.6563,20.582 114.2188,20.8789 L114.2188,23.5977 Q113.5938,23.0195 113,22.7539 Q112.4063,22.4727 111.7813,22.4727 Q110.4375,22.4727 109.75,23.5508 Q109.0625,24.6133 109.0625,26.707 Q109.0625,28.8008 109.75,29.8789 Q110.4375,30.9414 111.7813,30.9414 Q112.4063,30.9414 113,30.6758 Q113.5938,30.3945 114.2188,29.8164 L114.2188,32.5352 Z " fill="#000000"/><text fill="#D9B8FF" font-family="Helvetica" font-size="17" lengthAdjust="spacing" textLength="71" x="136.75" y="32.7798">resource</text><line style="stroke:#000D19;stroke-width:0.5;" x1="43.5" x2="268.5" y1="46.7891" y2="46.7891"/><text fill="#D9B8FF" font-family="sans-serif" font-size="14" font-weight="bold" lengthAdjust="spacing" textLength="29" x="53.5" y="68.7842">age</text><text fill="#D9B8FF" font-family="sans-serif" font-size="14" lengthAdjust="spacing" textLength="66" x="82.5" y="68.7842">: duration</text><text fill="#D9B8FF" font-family="sans-serif" font-size="14" font-weight="bold" lengthAdjust="spacing" textLength="43" x="53.5" y="95.0811">atime</text><text fill="#D9B8FF" font-family="sans-serif" font-size="14" lengthAdjust="spacing" textLength="70" x="96.5" y="95.0811">: datetime</text><text fill="#D9B8FF" font-family="sans-serif" font-size="14" font-weight="bold" lengthAdjust="spacing" textLength="43" x="53.5" y="121.3779">ctime</text><text fill="#D9B8FF" font-family="sans-serif" font-size="14" lengthAdjust="spacing" textLength="70" x="96.5" y="121.3779">: datetime</text><text fill="#D9B8FF" font-family="sans-serif" font-size="14" font-weight="bold" lengthAdjust="spacing" textLength="14" x="53.5" y="147.6748">id</text><text fill="#D9B8FF" font-family="sans-serif" font-size="14" lengthAdjust="spacing" textLength="48" x="67.5" y="147.6748">: string</text><text fill="#D9B8FF" font-family="sans-serif" font-size="14" font-weight="bold" lengthAdjust="spacing" textLength="33" x="53.5" y="173.9717">kind</text><text fill="#D9B8FF" font-family="sans-serif" font-size="14" lengthAdjust="spacing" textLength="48" x="86.5" y="173.9717">: string</text><text fill="#D9B8FF" font-family="sans-serif" font-size="14" font-weight="bold" lengthAdjust="spacing" textLength="90" x="53.5" y="200.2686">last_access</text><text fill="#D9B8FF" font-family="sans-serif" font-size="14" lengthAdjust="spacing" textLength="66" x="143.5" y="200.2686">: duration</text><text fill="#D9B8FF" font-family="sans-serif" font-size="14" font-weight="bold" lengthAdjust="spacing" textLength="90" x="53.5" y="226.5654">last_update</text><text fill="#D9B8FF" font-family="sans-serif" font-size="14" lengthAdjust="spacing" textLength="66" x="143.5" y="226.5654">: duration</text><text fill="#D9B8FF" font-family="sans-serif" font-size="14" font-weight="bold" lengthAdjust="spacing" textLength="48" x="53.5" y="252.8623">mtime</text><text fill="#D9B8FF" font-family="sans-serif" font-size="14" lengthAdjust="spacing" textLength="70" x="101.5" y="252.8623">: datetime</text><text fill="#D9B8FF" font-family="sans-serif" font-size="14" font-weight="bold" lengthAdjust="spacing" textLength="43" x="53.5" y="279.1592">name</text><text fill="#D9B8FF" font-family="sans-serif" font-size="14" lengthAdjust="spacing" textLength="48" x="96.5" y="279.1592">: string</text><text fill="#D9B8FF" font-family="sans-serif" font-size="14" font-weight="bold" lengthAdjust="spacing" textLength="34" x="53.5" y="305.4561">tags</text><text fill="#D9B8FF" font-family="sans-serif" font-size="14" lengthAdjust="spacing" textLength="171" x="87.5" y="305.4561">: dictionary[string, string]</text></g><!--class vsphere_cluster--><g id="elem_vsphere_cluster"><rect codeLine="41" fill="#3D176E" height="39.7891" id="vsphere_cluster" rx="2.5" ry="2.5" style="stroke:#000D19;stroke-width:0.5;" width="173" x="160.5" y="794.63"/><ellipse cx="175.5" cy="814.5245" fill="#ADD1B2" rx="11" ry="11" style="stroke:#181818;stroke-width:1.0;"/><path d="M178.4688,820.1652 Q177.8906,820.462 177.25,820.6027 Q176.6094,820.7589 175.9063,820.7589 Q173.4063,820.7589 172.0781,819.1183 Q170.7656,817.462 170.7656,814.337 Q170.7656,811.212 172.0781,809.5558 Q173.4063,807.8995 175.9063,807.8995 Q176.6094,807.8995 177.25,808.0558 Q177.9063,808.212 178.4688,808.5089 L178.4688,811.2277 Q177.8438,810.6495 177.25,810.3839 Q176.6563,810.1027 176.0313,810.1027 Q174.6875,810.1027 174,811.1808 Q173.3125,812.2433 173.3125,814.337 Q173.3125,816.4308 174,817.5089 Q174.6875,818.5714 176.0313,818.5714 Q176.6563,818.5714 177.25,818.3058 Q177.8438,818.0245 178.4688,817.4464 L178.4688,820.1652 Z " fill="#000000"/><text fill="#D9B8FF" font-family="Helvetica" font-size="17" lengthAdjust="spacing" textLength="131" x="194.5" y="820.4098">vsphere_cluster</text></g><!--class zone--><g id="elem_zone"><rect codeLine="44" fill="#3D176E" height="74.0859" id="zone" rx="2.5" ry="2.5" style="stroke:#000D19;stroke-width:0.5;" width="154" x="79" y="599.55"/><ellipse cx="127.25" cy="619.4445" fill="#ADD1B2" rx="11" ry="11" style="stroke:#181818;stroke-width:1.0;"/><path d="M130.2188,625.0852 Q129.6406,625.382 129,625.5227 Q128.3594,625.6789 127.6563,625.6789 Q125.1563,625.6789 123.8281,624.0383 Q122.5156,622.382 122.5156,619.257 Q122.5156,616.132 123.8281,614.4758 Q125.1563,612.8195 127.6563,612.8195 Q128.3594,612.8195 129,612.9758 Q129.6563,613.132 130.2188,613.4289 L130.2188,616.1477 Q129.5938,615.5695 129,615.3039 Q128.4063,615.0227 127.7813,615.0227 Q126.4375,615.0227 125.75,616.1008 Q125.0625,617.1633 125.0625,619.257 Q125.0625,621.3508 125.75,622.4289 Q126.4375,623.4914 127.7813,623.4914 Q128.4063,623.4914 129,623.2258 Q129.5938,622.9445 130.2188,622.3664 L130.2188,625.0852 Z " fill="#000000"/><text fill="#D9B8FF" font-family="Helvetica" font-size="17" lengthAdjust="spacing" textLength="39" x="152.75" y="625.3298">zone</text><line style="stroke:#000D19;stroke-width:0.5;" x1="80" x2="232" y1="639.3391" y2="639.3391"/><text fill="#D9B8FF" font-family="sans-serif" font-size="14" font-weight="bold" lengthAdjust="spacing" textLength="84" x="90" y="661.3342">long_name</text><text fill="#D9B8FF" font-family="sans-serif" font-size="14" lengthAdjust="spacing" textLength="48" x="174" y="661.3342">: string</text></g><!--reverse link zone to gcp_zone--><g id="link_zone_gcp_zone"><path codeLine="47" d="M129.1535,690.0655 C110.4135,726.7055 90.45,765.72 75.74,794.48 " fill="none" id="zone-backto-gcp_zone" style="stroke:#FFAF37;stroke-width:2.0;"/><polygon fill="none" points="137.35,674.04,123.8117,687.3334,134.4954,692.7977,137.35,674.04" style="stroke:#FFAF37;stroke-width:2.0;"/></g><!--reverse link resource to phantom_resource--><g id="link_resource_phantom_resource"><path codeLine="48" d="M156,335.84 C156,384.13 156,413.36 156,438.67 " fill="none" id="resource-backto-phantom_resource" style="stroke:#FFAF37;stroke-width:2.0;"/><polygon fill="none" points="156,317.84,150,335.84,162,335.84,156,317.84" style="stroke:#FFAF37;stroke-width:2.0;"/></g><!--reverse link zone to vsphere_cluster--><g id="link_zone_vsphere_cluster"><path codeLine="49" d="M183.1256,690.03 C202.0656,726.67 222.27,765.72 237.15,794.48 " fill="none" id="zone-backto-vsphere_cluster" style="stroke:#FFAF37;stroke-width:2.0;"/><polygon fill="none" points="174.86,674.04,177.7956,692.7852,188.4556,687.2748,174.86,674.04" style="stroke:#FFAF37;stroke-width:2.0;"/></g><!--reverse link phantom_resource to zone--><g id="link_phantom_resource_zone"><path codeLine="50" d="M156,496.81 C156,525.67 156,562.79 156,599.37 " fill="none" id="phantom_resource-backto-zone" style="stroke:#FFAF37;stroke-width:2.0;"/><polygon fill="none" points="156,478.81,150,496.81,162,496.81,156,478.81" style="stroke:#FFAF37;stroke-width:2.0;"/></g><!--SRC=[XLB1JkCm5BpdAonngwZKBbfA4HUs4c8l2C7U48fUxPV4Qc97po-Wiik_hzsKo7KAtEAPyPjv4rTQeS2cvQrei5aZkSnjj6c1e17NHFPrPMjBugGee3XRfEIDDVoju0uQ5BTOlo1h2QdYJwNbng1puaT4_GAvASbsHlNZcS0uJw7XIBMgmRbhPjBhZZ4AevRhYw98bUdGapCrNvpZI6P98UqbizbCpPUfv5khB_SU58_w3SKyBktECevYZYnsgYzJ1aKKShJe1_zfndjGIfjI_8omXpuJ6QG3_B42PL-3ke3QnJQEaT3ojiNLQ2jSNgXYSLJy-pDn9aDrefHj_cODYhzPzhx7sWeCsoOdTBOZUS15s6G29Kucbq9r1Aoj2GZhfiU0CNnxJ1x1j0g0yy_DbFxeWny2tejpaD8_viHXntHjc9KmpH4V0pqq36Oe-ubQXcj0swUUEzrhdeTLNrnR-HfpMNUXpxY5VMC-ZJLbdfYyPplwwjzqEXtwpORYUZpjEBwJ66UZ_z7BTcF_0m00]--></g></svg>

<svg xmlns="http://www.w3.org/2000/svg" width="340" height="840" viewBox="0 0 340 840"><rect width="118" height="39.789" x="7" y="794.63" fill="#3D176E" rx="2.5" ry="2.5" style="stroke:#000d19;stroke-width:.5"/><circle cx="22" cy="814.524" r="11" fill="#ADD1B2" style="stroke:#181818;stroke-width:1"/><path d="M24.969 820.165q-.578.297-1.219.438-.64.156-1.344.156-2.5 0-3.828-1.64-1.312-1.657-1.312-4.782t1.312-4.781q1.328-1.657 3.828-1.657.703 0 1.344.157.656.156 1.219.453v2.719q-.625-.578-1.219-.844-.594-.281-1.219-.281-1.343 0-2.031 1.078-.687 1.062-.687 3.156t.687 3.172q.688 1.062 2.031 1.062.625 0 1.219-.265.594-.282 1.219-.86z"/><text x="41" y="820.41" fill="#D9B8FF" font-family="Helvetica" font-size="17" textLength="76">gcp_zone</text><rect width="198" height="39.789" x="57" y="438.76" fill="#3D176E" rx="2.5" ry="2.5" style="stroke:#000d19;stroke-width:.5"/><circle cx="72" cy="458.654" r="11" fill="#ADD1B2" style="stroke:#181818;stroke-width:1"/><path d="M74.969 464.295q-.578.297-1.219.438-.64.156-1.344.156-2.5 0-3.828-1.64-1.312-1.657-1.312-4.782t1.312-4.781q1.328-1.656 3.828-1.656.703 0 1.344.156.656.156 1.219.453v2.719q-.625-.579-1.219-.844-.594-.281-1.219-.281-1.344 0-2.031 1.078-.687 1.062-.687 3.156t.687 3.172q.688 1.062 2.031 1.062.625 0 1.219-.265.594-.281 1.219-.86z"/><text x="91" y="464.54" fill="#D9B8FF" font-family="Helvetica" font-size="17" textLength="156">phantom_resource</text><rect width="227" height="310.758" x="42.5" y="7" fill="#3D176E" rx="2.5" ry="2.5" style="stroke:#000d19;stroke-width:.5"/><circle cx="111.25" cy="26.895" r="11" fill="#ADD1B2" style="stroke:#181818;stroke-width:1"/><path d="M114.219 32.535q-.578.297-1.219.438-.64.156-1.344.156-2.5 0-3.828-1.64-1.312-1.657-1.312-4.782t1.312-4.781q1.328-1.656 3.828-1.656.703 0 1.344.156.656.156 1.219.453v2.719q-.625-.578-1.219-.844-.594-.281-1.219-.281-1.344 0-2.031 1.078-.687 1.062-.687 3.156t.687 3.172q.688 1.062 2.031 1.062.625 0 1.219-.265.594-.281 1.219-.86z"/><text x="136.75" y="32.78" fill="#D9B8FF" font-family="Helvetica" font-size="17" textLength="71">resource</text><path d="M43.5 46.789h225" style="stroke:#000d19;stroke-width:.5"/><text x="53.5" y="68.784" fill="#D9B8FF" font-family="sans-serif" font-size="14" font-weight="bold" textLength="29">age</text><text x="82.5" y="68.784" fill="#D9B8FF" font-family="sans-serif" font-size="14" textLength="66">: duration</text><text x="53.5" y="95.081" fill="#D9B8FF" font-family="sans-serif" font-size="14" font-weight="bold" textLength="43">atime</text><text x="96.5" y="95.081" fill="#D9B8FF" font-family="sans-serif" font-size="14" textLength="70">: datetime</text><text x="53.5" y="121.378" fill="#D9B8FF" font-family="sans-serif" font-size="14" font-weight="bold" textLength="43">ctime</text><text x="96.5" y="121.378" fill="#D9B8FF" font-family="sans-serif" font-size="14" textLength="70">: datetime</text><text x="53.5" y="147.675" fill="#D9B8FF" font-family="sans-serif" font-size="14" font-weight="bold" textLength="14">id</text><text x="67.5" y="147.675" fill="#D9B8FF" font-family="sans-serif" font-size="14" textLength="48">: string</text><text x="53.5" y="173.972" fill="#D9B8FF" font-family="sans-serif" font-size="14" font-weight="bold" textLength="33">kind</text><text x="86.5" y="173.972" fill="#D9B8FF" font-family="sans-serif" font-size="14" textLength="48">: string</text><text x="53.5" y="200.269" fill="#D9B8FF" font-family="sans-serif" font-size="14" font-weight="bold" textLength="90">last_access</text><text x="143.5" y="200.269" fill="#D9B8FF" font-family="sans-serif" font-size="14" textLength="66">: duration</text><text x="53.5" y="226.565" fill="#D9B8FF" font-family="sans-serif" font-size="14" font-weight="bold" textLength="90">last_update</text><text x="143.5" y="226.565" fill="#D9B8FF" font-family="sans-serif" font-size="14" textLength="66">: duration</text><text x="53.5" y="252.862" fill="#D9B8FF" font-family="sans-serif" font-size="14" font-weight="bold" textLength="48">mtime</text><text x="101.5" y="252.862" fill="#D9B8FF" font-family="sans-serif" font-size="14" textLength="70">: datetime</text><text x="53.5" y="279.159" fill="#D9B8FF" font-family="sans-serif" font-size="14" font-weight="bold" textLength="43">name</text><text x="96.5" y="279.159" fill="#D9B8FF" font-family="sans-serif" font-size="14" textLength="48">: string</text><text x="53.5" y="305.456" fill="#D9B8FF" font-family="sans-serif" font-size="14" font-weight="bold" textLength="34">tags</text><text x="87.5" y="305.456" fill="#D9B8FF" font-family="sans-serif" font-size="14" textLength="171">: dictionary[string, string]</text><rect width="173" height="39.789" x="160.5" y="794.63" fill="#3D176E" rx="2.5" ry="2.5" style="stroke:#000d19;stroke-width:.5"/><circle cx="175.5" cy="814.524" r="11" fill="#ADD1B2" style="stroke:#181818;stroke-width:1"/><path d="M178.469 820.165q-.578.297-1.219.438-.64.156-1.344.156-2.5 0-3.828-1.64-1.312-1.657-1.312-4.782t1.312-4.781q1.328-1.657 3.828-1.657.703 0 1.344.157.656.156 1.219.453v2.719q-.625-.578-1.219-.844-.594-.281-1.219-.281-1.344 0-2.031 1.078-.687 1.062-.687 3.156t.687 3.172q.688 1.062 2.031 1.062.625 0 1.219-.265.594-.282 1.219-.86z"/><text x="194.5" y="820.41" fill="#D9B8FF" font-family="Helvetica" font-size="17" textLength="131">vsphere_cluster</text><rect width="154" height="74.086" x="79" y="599.55" fill="#3D176E" rx="2.5" ry="2.5" style="stroke:#000d19;stroke-width:.5"/><circle cx="127.25" cy="619.444" r="11" fill="#ADD1B2" style="stroke:#181818;stroke-width:1"/><path d="M130.219 625.085q-.578.297-1.219.438-.64.156-1.344.156-2.5 0-3.828-1.64-1.312-1.657-1.312-4.782t1.312-4.781q1.328-1.657 3.828-1.657.703 0 1.344.157.656.156 1.219.453v2.719q-.625-.579-1.219-.844-.594-.281-1.219-.281-1.344 0-2.031 1.078-.687 1.062-.687 3.156t.687 3.172q.688 1.062 2.031 1.062.625 0 1.219-.265.594-.282 1.219-.86z"/><text x="152.75" y="625.33" fill="#D9B8FF" font-family="Helvetica" font-size="17" textLength="39">zone</text><path d="M80 639.339h152" style="stroke:#000d19;stroke-width:.5"/><text x="90" y="661.334" fill="#D9B8FF" font-family="sans-serif" font-size="14" font-weight="bold" textLength="84">long_name</text><text x="174" y="661.334" fill="#D9B8FF" font-family="sans-serif" font-size="14" textLength="48">: string</text><path fill="none" d="M129.154 690.066c-18.74 36.64-38.704 75.654-53.414 104.414m61.61-120.44-13.538 13.293 10.683 5.465zM156 335.84v102.83m0-120.83-6 18h12z" style="stroke:#ffaf37;stroke-width:2"/><g fill="none"><path d="M183.126 690.03c18.94 36.64 39.144 75.69 54.024 104.45" style="stroke:#ffaf37;stroke-width:2"/><path d="m174.86 674.04 2.936 18.745 10.66-5.51z" style="stroke:#ffaf37;stroke-width:2"/></g><path fill="none" d="M156 496.81v102.56m0-120.56-6 18h12z" style="stroke:#ffaf37;stroke-width:2"/></svg>
